scr/images/icons/logo.svg

<svg width="130.053" height="72.301" viewBox="1.7995019181258272
-4.900681026053867 138.0528790368062 80.30085951045248"
xmlns="http://www.w3.org/2000/svg"><g id="svgGroup"
stroke-linecap="round" fill-rule="nonzero" font-size="9pt"
stroke="#0070ff" stroke-width="0.25mm" fill="#0070ff"
style="stroke:#0070ff;stroke-width:0.25mm;fill:#0070ff"><path d="M 53
60 L 50.9 65.2 L 50.9 41.9 L 38 41.9 Q 36.349 41.9 35.277 41.184 A
3.584 3.584 0 0 1 34.85 40.85 A 3.424 3.424 0 0 1 33.813 39.005 A
5.14 5.14 0 0 1 33.7 37.9 A 4.978 4.978 0 0 1 33.818 36.78 Q 33.995
36.018 34.433 35.472 A 2.919 2.919 0 0 1 34.85 35.05 Q 35.863 34.213
37.536 34.114 A 7.808 7.808 0 0 1 38 34.1 L 55.3 34.1 A 6.405 6.405 0
0 1 56.543 34.213 Q 57.261 34.355 57.817 34.677 A 3.297 3.297 0 0 1
58.5 35.2 A 3.525 3.525 0 0 1 59.374 36.699 Q 59.544 37.26 59.586
37.936 A 7.396 7.396 0 0 1 59.6 38.4 L 59.6 63.6 Q 59.6 65.216 59.076
66.389 A 4.887 4.887 0 0 1 58.95 66.65 A 3.755 3.755 0 0 1 57.457
68.183 A 5.07 5.07 0 0 1 56.8 68.5 A 44.076 44.076 0 0 1 52.44 69.951
Q 49.782 70.692 46.7 71.25 A 64.303 64.303 0 0 1 36.953 72.279 A
58.302 58.302 0 0 1 35.4 72.3 Q 23.9 72.3 16 67.95 Q 8.1 63.6 4.05
55.5 A 37.126 37.126 0 0 1 0.79 45.484 Q 0 41.144 0 36.2 Q 0 27.8
2.35 21.15 A 33.345 33.345 0 0 1 6.574 12.904 A 30.06 30.06 0 0 1
9.15 9.75 A 28.953 28.953 0 0 1 19.45 2.739 A 33.572 33.572 0 0 1
20.05 2.5 A 36.337 36.337 0 0 1 28.327 0.413 A 47.426 47.426 0 0 1
34.7 0 Q 40.7 0 46.5 1.55 Q 52.3 3.1 57.1 6.6 A 5.866 5.866 0 0 1
58.01 7.392 Q 58.55 7.978 58.812 8.648 A 3.556 3.556 0 0 1 58.9 8.9 A
4.739 4.739 0 0 1 59.114 10.301 A 4.962 4.962 0 0 1 58.95 11.55 Q
58.6 12.9 57.65 13.9 Q 56.7 14.9 55.35 15.1 A 3.114 3.114 0 0 1
54.894 15.134 Q 53.734 15.134 52.4 14.3 A 28.377 28.377 0 0 0 45.003
10.597 A 26.694 26.694 0 0 0 44.2 10.35 A 31.213 31.213 0 0 0 38.474
9.276 A 39.328 39.328 0 0 0 34.7 9.1 Q 26.9 9.1 21.55 12.3 A 19.779
19.779 0 0 0 13.759 20.989 A 24.123 24.123 0 0 0 13.5 21.55 A 29.295
29.295 0 0 0 11.518 28.009 Q 10.8 31.766 10.8 36.2 Q 10.8 45.214
13.694 51.288 A 20.773 20.773 0 0 0 17.1 56.4 A 20.02 20.02 0 0 0
26.424 62.072 Q 30.569 63.3 35.8 63.3 Q 40.3 63.3 44.65 62.45 Q 49
61.6 53 60 Z M 75.5 66.8 L 75.5 6.2 A 7.702 7.702 0 0 1 75.644 4.663
Q 75.83 3.752 76.255 3.056 A 4.042 4.042 0 0 1 76.9 2.25 A 4.606
4.606 0 0 1 78.951 1.123 Q 79.674 0.93 80.534 0.904 A 8.937 8.937 0 0
1 80.8 0.9 L 104.7 0.9 A 38.647 38.647 0 0 1 111.546 1.468 Q 115.338
2.151 118.338 3.658 A 18.947 18.947 0 0 1 122.3 6.3 A 17.568 17.568 0
0 1 128.01 16.387 A 26.32 26.32 0 0 1 128.5 21.6 A 24.614 24.614 0 0
1 127.965 26.856 A 18.577 18.577 0 0 1 125.7 32.6 A 17.383 17.383 0 0
1 118.848 38.966 A 21.567 21.567 0 0 1 117.55 39.6 Q 112.618 41.813
105.859 41.986 A 45.329 45.329 0 0 1 104.7 42 L 105.6 40.6 L 108.2
40.6 Q 112.2 40.6 115.15 42.6 A 13.348 13.348 0 0 1 117.605 44.786 Q
118.613 45.916 119.545 47.378 A 27.637 27.637 0 0 1 120.5 49 L 129.1
65 Q 130.1 66.8 130.05 68.45 Q 130 70.1 128.85 71.1 Q 127.88 71.944
126.234 72.076 A 7.936 7.936 0 0 1 125.6 72.1 A 8.304 8.304 0 0 1
124.129 71.977 Q 123.299 71.828 122.633 71.496 A 4.469 4.469 0 0 1
122.05 71.15 A 7.002 7.002 0 0 1 120.84 70.051 Q 120.349 69.495
119.897 68.788 A 13.071 13.071 0 0 1 119.6 68.3 L 109.1 48.9 Q 107 45
104.3 43.65 Q 101.6 42.3 97.2 42.3 L 85.9 42.3 L 85.9 66.8 A 7.731
7.731 0 0 1 85.75 68.372 Q 85.551 69.332 85.087 70.067 A 4.301 4.301
0 0 1 84.6 70.7 A 4.098 4.098 0 0 1 82.79 71.813 Q 82.135 72.019
81.342 72.077 A 8.78 8.78 0 0 1 80.7 72.1 A 7.172 7.172 0 0 1 79.184
71.949 Q 77.758 71.641 76.85 70.7 A 4.606 4.606 0 0 1 75.723 68.65 Q
75.53 67.927 75.504 67.067 A 8.937 8.937 0 0 1 75.5 66.8 Z M 85.9 9.2
L 85.9 34.5 L 103 34.5 A 28.855 28.855 0 0 0 107.288 34.203 Q 109.468
33.875 111.228 33.183 A 12.068 12.068 0 0 0 114.5 31.3 A 10.265
10.265 0 0 0 117.981 25.601 Q 118.4 23.867 118.4 21.8 A 15.708 15.708
0 0 0 117.981 18.054 A 10.25 10.25 0 0 0 114.5 12.4 A 12.507 12.507 0
0 0 110.466 10.241 Q 108.656 9.639 106.443 9.385 A 30.25 30.25 0 0 0
103 9.2 L 85.9 9.2 Z" vector-effect="non-scaling-stroke"/></g></svg>

<svg xmlns="http://www.w3.org/2000/svg" width="130.1" height="72.3" viewBox="1.8 -4.9 138.1 80.3">
<path fill="#0070ff" stroke="#0070ff" stroke-linecap="round" stroke-width=".9" d="m53
60-2.1 5.2V41.9H38q-1.7 0-2.7-.7a3.6 3.6 0 0 1-.4-.4 3.4 3.4 0 0 1-1-1.8 5.1 5.1 0 0 1-.2-1.1 5 5
0 0 1 .1-1.1q.2-.8.6-1.3a3 3 0 0 1 .5-.5q1-.8 2.6-.9a7.8 7.8 0 0 1 .5 0h17.3a6.4 6.4 0 0 1
1.2.1q.8.2 1.3.5a3.3 3.3 0 0 1 .7.5 3.5 3.5 0 0 1 .9 1.5l.2 1.2a7.4 7.4 0 0 1 0 .5v25.2q0 1.6-.5
2.8a4.9 4.9 0 0 1-.1.3 3.8 3.8 0 0 1-1.5 1.5 5 5 0 0 1-.7.3 44 44 0 0 1-4.4 1.5q-2.6.7-5.7 1.3a64.3
64.3 0 0 1-9.7 1 58.3 58.3 0 0 1-1.6 0Q23.9 72.3 16 68 8.1 63.6 4 55.5a37.1 37.1 0 0 1-3.2-10Q0 41
0 36.2q0-8.4 2.4-15a33.3 33.3 0 0 1 4.2-8.3 30 30 0 0 1 2.6-3.2 29 29 0 0 1 10.3-7 33.6 33.6 0 0 1
.6-.2 36.3 36.3 0 0 1 8.2-2 47.4 47.4 0 0 1 6.4-.5q6 0 11.8 1.6 5.8 1.5 10.6 5a5.9 5.9 0 0 1 1
.8l.7 1.2a3.6 3.6 0 0 1 .1.3 4.7 4.7 0 0 1 .2 1.4 5 5 0 0 1-.1 1.3q-.4 1.3-1.4 2.3-.9 1-2.3 1.2a3.1
3.1 0 0 1-.4 0q-1.2 0-2.5-.8a28.4 28.4 0 0 0-7.4-3.7 26.7 26.7 0 0 0-.8-.3 31.2 31.2 0 0 0-5.7-1
39.3 39.3 0 0 0-3.8-.2q-7.8 0-13.2 3.2a19.8 19.8 0 0 0-7.7 8.7 24.1 24.1 0 0 0-.3.6 29.3 29.3 0 0
0-2 6.4q-.7 3.8-.7 8.2 0 9 2.9 15a20.8 20.8 0 0 0 3.4 5.2 20 20 0 0 0 9.3 5.7q4.2 1.2 9.4 1.2 4.5
0 8.9-.8Q49 61.6 53 60Zm22.5 6.8V6.2a7.7 7.7 0 0 1 .1-1.5q.2-1 .7-1.6a4 4 0 0 1 .6-.9 4.6 4.6 0 0 1
2-1q.8-.3 1.6-.3a9 9 0 0 1 .3 0h23.9a38.6 38.6 0 0 1 6.8.6q3.8.7 6.8 2.2a19 19 0 0 1 4 2.6 17.6 17.6
0 0 1 5.7 10 26.3 26.3 0 0 1 .5 5.3 24.6 24.6 0 0 1-.5 5.3 18.6 18.6 0 0 1-2.3 5.7 17.4 17.4 0 0
1-6.9 6.4 21.6 21.6 0 0 1-1.3.6q-4.9 2.2-11.6 2.4a45.3 45.3 0 0 1-1.2 0l.9-1.4h2.6q4 0 7 2a13.3 13.3
0 0 1 2.4 2.2q1 1.1 2 2.6a27.6 27.6 0 0 1 .9 1.6l8.6 16q1 1.8 1 3.5-.1 1.6-1.3 2.6-1 .8-2.6 1a8 8 0
0 1-.6 0 8.3 8.3 0 0 1-1.5-.1l-1.5-.5a4.5 4.5 0 0 1-.5-.3 7 7 0 0 1-1.3-1.1l-.9-1.3a13 13 0 0
1-.3-.5l-10.5-19.4q-2.1-3.9-4.8-5.3-2.7-1.3-7.1-1.3H85.9v24.5a7.7 7.7 0 0 1-.2 1.6q-.1 1-.6 1.7a4.3
4.3 0 0 1-.5.6 4.1 4.1 0 0 1-1.8 1.1l-1.5.3a8.8 8.8 0 0 1-.6 0 7.2 7.2 0 0
1-1.5-.2q-1.4-.3-2.4-1.2a4.6 4.6 0 0 1-1-2q-.3-.8-.3-1.6a9 9 0 0 1 0-.3ZM85.9 9.2v25.3H103a28.9 28.9
0 0 0 4.3-.3q2.2-.3 4-1a12 12 0 0 0 3.2-1.9 10.3 10.3 0 0 0 3.5-5.7q.4-1.7.4-3.8a15.7 15.7 0 0
0-.4-3.7 10.3 10.3 0 0 0-3.5-5.7 12.5 12.5 0 0 0-4-2.2q-1.8-.6-4-.8a30.3 30.3 0 0 0-3.5-.2H85.9Z"
font-size="12" style="stroke:#0070ff;stroke-width:.25mm;fill:#0070ff" vector-effect="non-scaling-stroke"/>
</svg>
